X: 119
T:Capitaine
M:3/4
L:1/8
S:La Chavannee, from manuscript of Marguerite Gauthier-Villars
D:La Chavannee : Bateau Dore
R:Mazurka
N:Original key B
Z:Steve Mansfield
K:G
DG GA GF | D2 B3A | GA BA Bc | A2GFGA | DG GA GF | D2 B3A |
GA B3c |1 A6 :|2 A4 Bd |: c3 B AG | Ac BAGF | GB AGEF |
E2D2 Bd | c3B AG | Ac BAGF | GB AGEF |1 G4 Bd :|2 G6 ||

